!!!!SEGMENT: pl-wtm--r-996-1--001-004_krogulski-jozef-wladyslaw--nieszpory-laudate-pueri.krn
!!!cenid: 18xx:2095
!!!COM: Krogulski, Józef Władysław
!!!COM-rismid: pe30001797
!!!CDT: 1815/10/04-1842/01/09
!!!CNT: Polish
!!!OPR: Nieszpory
!!!OTL: Laudate pueri
!!!OMV: 004
!!!PDT: 1836
!!!AGN: Sacred; Vespers
!!!SMS-siglum: PL-Wtm
!!!SMS-shelfmark: R 996/1
!!!SMS-shelfwork: 001-004 M
!!!SMS-variant:
!!!SMS-altvar:
!!!NIFC-rismid: 1001086252
!!!URL-scan: http://repozytorium.nifc.pl/skany/pl-wtm-nut--r996
!!!ONB-nifc: UWAGA: części Nieszporów: 1. Dixit Dominus, 2. Confitebor tibi, 3. Beatus vir, 4. Laudate pueri, 5. Laudate Dominum, 6. Magnificat, 7. Salve Regina. Folder pl-wtm-r996-1
!!!OMD: Andante.
**kern	**kern	**dynam	**kern	**text	**dynam	**kern	**text	**dynam	**kern	**text	**text	**dynam	**kern	**text	**dynam
*part5	*part5	*part5	*part4	*part4	*part4	*part3	*part3	*part3	*part2	*part2	*part2	*part2	*part1	*part1	*part1
*staff6	*staff5	*	*staff4	*staff4	*	*staff3	*staff3	*	*staff2	*staff2	*staff2	*	*staff1	*staff1	*
*Iorgan	*Iorgan	*	*Iempty	*	*	*Itenor	*	*	*Isoprn	*	*	*	*Isoprn	*	*
*I"Organo.	*I"Organo.	*	*I"Basſo	*	*	*I"Tenori	*	*	*I"Soprano 2 vel Alto.	*	*	*	*I"Soprano	*	*
*clefF4	*clefG2	*	*clefF4	*	*	*clefG2	*	*	*clefG2	*	*	*	*clefG2	*	*
*k[b-e-a-]	*k[b-e-a-]	*	*k[b-e-a-]	*	*	*k[b-e-a-]	*	*	*k[b-e-a-]	*	*	*	*k[b-e-a-]	*	*
*E-:	*E-:	*	*E-:	*	*	*E-:	*	*	*E-:	*	*	*	*E-:	*	*
*M3/4	*M3/4	*	*M3/4	*	*	*M3/4	*	*	*M3/4	*	*	*	*M3/4	*	*
*	*	*	*	*	*	*	*	*	*	*ij	*	*below	*	*	*below
!	!	!LO:DY:rj	!	!	!	!	!	!	!	!	!	!LO:DY:rj	!LO:TX:a:t=Psalmus 112.	!	!LO:DY:rj
4r	4g 4e-/	p	4r	.	.	4r	.	.	4e-/	Lau-	.	p	4g/	Lau-	p
=1	=1	=1	=1	=1	=1	=1	=1	=1	=1	=1	=1	=1	=1	=1	=1
2.r	2g 2e-/	.	2.r	.	.	2.r	.	.	2e-/	-da-	.	.	2g/	-da-	.
.	4g 4e-/	.	.	.	.	.	.	.	4e-/	-te	.	.	4g/	-te	.
=2	=2	=2	=2	=2	=2	=2	=2	=2	=2	=2	=2	=2	=2	=2	=2
2.r	4.b- 4.g/	.	2.r	.	.	2.r	.	.	4.g/	pu-	.	.	4.b-\	pu-	.
.	8a- 8f/	.	.	.	.	.	.	.	8f/	-e-	.	.	8a-\	-e-	.
.	4g 4e-/	.	.	.	.	.	.	.	4e-/	-ri	.	.	4g\	-ri	.
=3	=3	=3	=3	=3	=3	=3	=3	=3	=3	=3	=3	=3	=3	=3	=3
2.r	4f 4B-/	.	2.r	.	.	2.r	.	.	(4B-/	Do-	.	.	(4f/	Do-	.
.	4g 4e-/	.	.	.	.	.	.	.	4e-/)	.	.	.	4g/)	.	.
.	4a- 4f/	.	.	.	.	.	.	.	4f/	-mi-	.	.	4a-/	-mi-	.
=4	=4	=4	=4	=4	=4	=4	=4	=4	=4	=4	=4	=4	=4	=4	=4
*	*	*^	*	*	*	*	*	*	*	*	*	*	*	*	*
4r	2g 2e-/	.	.	4r	.	.	4r	.	.	2e-/	-num	.	.	2g/	-num	.
4r	.	.	.	4r	.	.	4r	.	.	.	.	.	.	.	.	.
*	*	*	*	*	*ij	*below	*	*	*below	*	*	*	*	*	*	*
!	!	!LO:DY:b=2:rj	!LO:DY:rj	!	!	!LO:DY:rj	!	!	!LO:DY:rj	!	!	!	!LO:DY:rj	!	!	!LO:DY:rj
4E- 4EE-/	4ee- 4g\	f	f	4E-\	Lau-	f	4ee- 4g\	Lau-	f	4g/	Lau-	.	f	4ee-\	Lau-	f
*	*	*v	*v	*	*	*	*	*	*	*	*	*	*	*	*	*
=5	=5	=5	=5	=5	=5	=5	=5	=5	=5	=5	=5	=5	=5	=5	=5
[2.E- [2.EE-/	2.ee- 2.g\	.	2E-\	-da-	.	2ee- 2g\	-da-	.	2g/	-da-	.	.	2ee-\	-da-	.
.	.	.	4E-\	-te	.	4ee- 4g\	-te	.	4g/	-te	.	.	4ee-\	-te	.
=6	=6	=6	=6	=6	=6	=6	=6	=6	=6	=6	=6	=6	=6	=6	=6
2.E-] 2.EE-/]	4.gg 4.b-\	.	4.E-\	pu-	.	4.gg 4.b-\	pu-	.	4.b-/	pu-	.	.	4.gg\	pu-	.
.	8ff 8a-\	.	8E-\	-e-	.	8ff 8a-\	-e-	.	8a-/	-e-	.	.	8ff\	-e-	.
.	4ee- 4g\	.	4E-\	-ri	.	4ee- 4g\	-ri	.	4g/	-ri	.	.	4ee-\	-ri	.
=7	=7	=7	=7	=7	=7	=7	=7	=7	=7	=7	=7	=7	=7	=7	=7
2.B- 2.BB-\	4dd 4f\	.	2BB-/	Do-	.	(4dd 4f\	Do-	.	(4f/	Do-	.	.	(4dd\	Do-	.
.	4ee- 4g\	.	.	.	.	4ee- 4f\)	.	.	4g/)	.	.	.	4ee-\)	.	.
.	4ff 4a-\	.	4BB-/	-mi-	.	4ff 4a-\	-mi-	.	4a-/	-mi-	.	.	4ff\	-mi-	.
=8	=8	=8	=8	=8	=8	=8	=8	=8	=8	=8	=8	=8	=8	=8	=8
2E- 2EE-/	2ee- 2g\	.	2E-\	-num	.	2ee- 2g\	-num	.	2g/	-num	.	.	2ee-\	-num	.
*	*	*	*	*Xij	*	*	*	*	*	*	*	*	*	*	*
(4B-\	4r	.	4B-\	Lau-	.	4r	.	.	4r	.	.	.	4r	.	.
=9	=9	=9	=9	=9	=9	=9	=9	=9	=9	=9	=9	=9	=9	=9	=9
4e-\	2.r	.	(4e-\	-da-	.	2.r	.	.	2.r	.	.	.	2.r	.	.
4d\	.	.	4d\	.	.	.	.	.	.	.	.	.	.	.	.
4c\	.	.	4c\	.	.	.	.	.	.	.	.	.	.	.	.
=10	=10	=10	=10	=10	=10	=10	=10	=10	=10	=10	=10	=10	=10	=10	=10
4B-\	2.r	.	4B-\	.	.	2.r	.	.	2.r	.	.	.	2.r	.	.
!	!	!	!	!	!LO:HP:a:t=dim&colon;	!	!	!	!	!	!	!	!	!	!
4A-\	.	.	4A-\	.	>	.	.	.	.	.	.	.	.	.	.
4G\	.	.	4G\	.	.	.	.	.	.	.	.	.	.	.	.
=11	=11	=11	=11	=11	=11	=11	=11	=11	=11	=11	=11	=11	=11	=11	=11
4F\	2.r	.	4F\	.	.	2.r	.	.	2.r	.	.	.	2.r	.	.
4E-\	.	.	4E-\	.	.	.	.	.	.	.	.	.	.	.	.
4D\	.	.	4D\	.	.	.	.	.	.	.	.	.	.	.	.
=12	=12	=12	=12	=12	=12	=12	=12	=12	=12	=12	=12	=12	=12	=12	=12
4C\	4r	.	4C\	.	.	4r	.	.	4r	.	.	.	4r	.	.
4BB-\)	4r	.	4BB-\)	.	.	4r	.	p	4r	.	.	p	4r	.	p
4AAn/	4f 4d/	p	4AAn/	-te	.	4f 4d/	Lau-	.	4d/	Lau-	.	.	4f/	Lau-	.
=13	=13	=13	=13	=13	=13	=13	=13	=13	=13	=13	=13	=13	=13	=13	=13
!	!	!LO:DY:b=2:rj	!	!	!LO:DY:rj	!	!	!	!	!	!	!	!	!	!
[2.AA-X/	[2.f [2.d/	p	[2.AA-X/	no-	p	2f 2d/	-da-	.	2d/	-da-	.	.	2f/	-da-	.
.	.	.	.	.	.	4f 4d/	-te	.	4d/	-te	.	.	4f/	-te	.
=14	=14	=14	=14	=14	=14	=14	=14	=14	=14	=14	=14	=14	=14	=14	=14
2.AA-/]	4f] 4d/]	.	2AA-/]	.	.	(4f 4d/	no-	.	(4d/	no-	.	.	(4f/	no-	.
.	4g 4e-/	.	.	.	.	4g 4e-/)	.	.	4e-/)	.	.	.	4g/)	.	.
.	4a- 4f/	.	4AA-/	-men	.	4a- 4f/	-men	.	4f/	-men	.	.	4a-/	-men	.
=15	=15	=15	=15	=15	=15	=15	=15	=15	=15	=15	=15	=15	=15	=15	=15
*	*^	*	*	*	*	*	*	*	*	*	*	*	*	*	*
2.GG/	2b-/	[2.e-\	.	2GG/	Do-	.	2b- 2e-/	Do-	.	2e-/	Do-	.	.	2b-\	Do-	.
.	4bn/	.	.	4GG/	-mi-	.	4bn 4e-/	-mi-	.	4e-/	-mi-	.	.	4bn\	-mi-	.
*	*v	*v	*	*	*	*	*	*	*	*	*	*	*	*	*	*
=16	=16	=16	=16	=16	=16	=16	=16	=16	=16	=16	=16	=16	=16	=16	=16
2.AA-/	2cc 2e-\]	.	2AA-/	-ni	.	2cc 2e-/	-ni	.	2e-/	-ni	.	.	2cc\	-ni	.
.	4cc 4a-\	.	4AA-/	Lau-	.	4cc 4a-\	Lau-	.	4a-/	Lau-	.	.	4cc\	Lau-	.
=17	=17	=17	=17	=17	=17	=17	=17	=17	=17	=17	=17	=17	=17	=17	=17
*	*^	*	*	*	*	*^	*	*	*	*	*	*	*	*	*
[2.BB-/	4b-X/	2g\	.	[2.BB-/	-da-	.	4b-X/	2g\	-da-	.	2g/	-da-	.	.	4b-\	-da-	.
.	4ee-/	.	.	.	.	.	4ee-/	.	.	.	.	.	.	.	4ee-\	.	.
!LO:TX:b:t=VS.	!	!	!	!	!	!	!	!	!	!	!	!	!	!	!	!	!
.	4g/	4e-\	.	.	.	.	4g/	4e-\	.	.	4e-/	.	.	.	4g\	.	.
*	*v	*v	*	*	*	*	*v	*v	*	*	*	*	*	*	*	*	*
!!LO:PB:g=original
=18	=18	=18	=18	=18	=18	=18	=18	=18	=18	=18	=18	=18	=18	=18	=18
[2.B- 2.BB-\_	4cc 4a-\	.	4BB-/]	.	.	4cc 4a-\	.	.	4a-/	.	.	.	4cc\	.	.
.	4b- 4g\	.	4BB-/	-te	.	4b- 4g\	-te	.	4g/	-te	.	.	4b-\	-te	.
.	4b- 4g\	.	4BB-/	Lau-	.	4b- 4g\	Lau-	.	4g/	Lau-	.	.	4b-\	Lau-	.
=19	=19	=19	=19	=19	=19	=19	=19	=19	=19	=19	=19	=19	=19	=19	=19
*	*^	*	*	*	*	*^	*	*	*	*	*	*	*	*	*
2.B-_ 2.BB-\_	4b-/	2g\	.	[2.BB-/	-da-	.	4b-/	2g\	-da-	.	2g/	-da-	.	.	4b-\	-da-	.
.	4ee-/	.	.	.	.	.	4ee-/	.	.	.	.	.	.	.	4ee-\	.	.
.	4g/	4e-\	.	.	.	.	4g/	4e-\	.	.	4e-/	.	.	.	4g\	.	.
*	*v	*v	*	*	*	*	*v	*v	*	*	*	*	*	*	*	*	*
=20	=20	=20	=20	=20	=20	=20	=20	=20	=20	=20	=20	=20	=20	=20	=20
2.B-_ 2.BB-\_	2cc 2a-\	.	2BB-/]	.	.	2cc 2a-\	.	.	2a-/	.	.	.	2cc\	.	.
.	4b- 4g\	.	4BB-/	-te	.	4b- 4g\	-te	.	4g/	-te	.	.	4b-\	-te	.
=21	=21	=21	=21	=21	=21	=21	=21	=21	=21	=21	=21	=21	=21	=21	=21
2.B-_ 2.BB-\_	[2.a- [2.e-/	.	[2.BB-/	no-	.	[2.b- [2.f/	no-	.	[2.e-/	no-	.	.	[2.a-/	no-	.
=22	=22	=22	=22	=22	=22	=22	=22	=22	=22	=22	=22	=22	=22	=22	=22
*	*^	*	*	*	*	*	*	*	*	*	*	*	*	*	*
2.B-_ 2.BB-\_	2.a-/_	4e-\]	.	2BB-/]	.	.	2b-] 2f/]	.	.	4e-/]	.	.	.	2a-/]	.	.
.	.	4d\	.	.	.	.	.	.	.	4d/	.	.	.	.	.	.
.	.	4c\	.	4BB-/	-men	.	4b- 4f/	-men	.	4c/	-men	.	.	4a-/	-men	.
=23	=23	=23	=23	=23	=23	=23	=23	=23	=23	=23	=23	=23	=23	=23	=23	=23
2.B-] 2.BB-\]	2a-/]	2.d\	.	2BB-/	Do-	.	2b- 2f/	Do-	.	2d/	Do-	.	.	2a-/	Do-	.
.	4b-/	.	.	4BB-/	-mi-	.	4b- 4f/	-mi-	.	4d/	-mi-	.	.	4b-/	-mi-	.
*	*v	*v	*	*	*	*	*	*	*	*	*	*	*	*	*	*
=24	=24	=24	=24	=24	=24	=24	=24	=24	=24	=24	=24	=24	=24	=24	=24
2B- 2E-\	2g 2e-/	.	2E-\	-ni	.	2b- 2g/	-ni	.	2e-/	-ni	.	.	2g/	-ni	.
*	*	*	*	*	*	*	*	*	*	*Xij	*	*	*	*	*
!	!	!	!	!	!	!	!	!	!	!	!	!	!LO:TX:a:t=Solo.	!	!
4r	4r	.	4r	.	.	4r	.	.	4r	.	.	.	8b-\L	Sit	.
.	.	.	.	.	.	.	.	.	.	.	.	.	8dd\J	.	.
=25	=25	=25	=25	=25	=25	=25	=25	=25	=25	=25	=25	=25	=25	=25	=25
!	!	!	!	!	!	!	!	!	!	!	!	!	!LO:TX:t=P:problem:diminuendolike accent	!	!
[2.B- [2.BB-\	(8d/L	p	2.r	.	.	2.r	.	.	2.r	.	.	.	2ff^\	no-	.
.	8f/	.	.	.	.	.	.	.	.	.	.	.	.	.	.
.	8b-/	.	.	.	.	.	.	.	.	.	.	.	.	.	.
.	8f/	.	.	.	.	.	.	.	.	.	.	.	.	.	.
.	8d/	.	.	.	.	.	.	.	.	.	.	.	4dd\	-men	.
.	8f/J)	.	.	.	.	.	.	.	.	.	.	.	.	.	.
=26	=26	=26	=26	=26	=26	=26	=26	=26	=26	=26	=26	=26	=26	=26	=26
*	*rep	*	*	*	*	*	*	*	*	*	*	*	*	*	*
!	!	!	!	!	!	!	!	!	!	!	!	!	!LO:TX:t=P:problem:diminuendolike accent	!	!
2.B-_ 2.BB-\_	(8d/L	.	2.r	.	.	2.r	.	.	2.r	.	.	.	4.ff^\	Do-	.
.	8f/	.	.	.	.	.	.	.	.	.	.	.	.	.	.
.	8b-/	.	.	.	.	.	.	.	.	.	.	.	.	.	.
.	8f/	.	.	.	.	.	.	.	.	.	.	.	8dd\	-mi-	.
.	8d/	.	.	.	.	.	.	.	.	.	.	.	4b-\	-ni	.
.	8f/J)	.	.	.	.	.	.	.	.	.	.	.	.	.	.
*	*Xrep	*	*	*	*	*	*	*	*	*	*	*	*	*	*
=27	=27	=27	=27	=27	=27	=27	=27	=27	=27	=27	=27	=27	=27	=27	=27
2.B-_ 2.BB-\_	(8e-\L	.	2.r	.	.	2.r	.	.	2.r	.	.	.	[4ee-\	Be-	.
.	8g\	.	.	.	.	.	.	.	.	.	.	.	.	.	.
.	8cc\	.	.	.	.	.	.	.	.	.	.	.	16ee-\LL]	.	.
.	.	.	.	.	.	.	.	.	.	.	.	.	16ff\	.	.
.	8g\	.	.	.	.	.	.	.	.	.	.	.	16gg\	.	.
.	.	.	.	.	.	.	.	.	.	.	.	.	16ff\JJ	.	.
.	8e-\	.	.	.	.	.	.	.	.	.	.	.	16ee-\LL	-ne-	.
.	.	.	.	.	.	.	.	.	.	.	.	.	16dd\	.	.
.	8g\J)	.	.	.	.	.	.	.	.	.	.	.	16cc\	.	.
.	.	.	.	.	.	.	.	.	.	.	.	.	16b-\JJ	.	.
=28	=28	=28	=28	=28	=28	=28	=28	=28	=28	=28	=28	=28	=28	=28	=28
.	.	.	.	.	.	.	.	.	.	.	.	.	8qqb-/	.	.
2B-] 2BB-\]	(8c/L	.	2.r	.	.	2.r	.	.	2.r	.	.	.	4an\	-dic-	.
.	8e-/	.	.	.	.	.	.	.	.	.	.	.	.	.	.
.	8an/	.	.	.	.	.	.	.	.	.	.	.	8a\	-tum	.
.	8e-/	.	.	.	.	.	.	.	.	.	.	.	8r	.	.
4r	8c/	.	.	.	.	.	.	.	.	.	.	.	8cc\L	Sit	.
.	8e-/J)	.	.	.	.	.	.	.	.	.	.	.	8dd\J	.	.
=29	=29	=29	=29	=29	=29	=29	=29	=29	=29	=29	=29	=29	=29	=29	=29
*	*rep	*	*	*	*	*	*	*	*	*	*	*	*	*	*
!	!	!	!	!	!	!	!	!	!	!	!	!	!LO:TX:t=P:problem:diminuendolike accent	!	!
[2.F [2.FF/	(8c/L	.	2.r	.	.	2.r	.	.	2.r	.	.	.	2ee-^\	no-	.
.	8e-/	.	.	.	.	.	.	.	.	.	.	.	.	.	.
.	8an/	.	.	.	.	.	.	.	.	.	.	.	.	.	.
.	8e-/	.	.	.	.	.	.	.	.	.	.	.	.	.	.
.	8c/	.	.	.	.	.	.	.	.	.	.	.	4cc\	-men	.
.	8e-/J)	.	.	.	.	.	.	.	.	.	.	.	.	.	.
*	*Xrep	*	*	*	*	*	*	*	*	*	*	*	*	*	*
=30	=30	=30	=30	=30	=30	=30	=30	=30	=30	=30	=30	=30	=30	=30	=30
*	*rep	*	*	*	*	*	*	*	*	*	*	*	*	*	*
!	!	!	!	!	!	!	!	!	!	!	!	!	!LO:TX:t=P:problem:diminuendolike accent	!	!
2.F_ 2.FF/_	(8c/L	.	2.r	.	.	2.r	.	.	2.r	.	.	.	4.ee-^\	Do-	.
.	8e-/	.	.	.	.	.	.	.	.	.	.	.	.	.	.
.	8an/	.	.	.	.	.	.	.	.	.	.	.	.	.	.
.	8e-/	.	.	.	.	.	.	.	.	.	.	.	8cc\	-mi-	.
.	8c/	.	.	.	.	.	.	.	.	.	.	.	4an/	-ni	.
.	8e-/J)	.	.	.	.	.	.	.	.	.	.	.	.	.	.
*	*Xrep	*	*	*	*	*	*	*	*	*	*	*	*	*	*
=31	=31	=31	=31	=31	=31	=31	=31	=31	=31	=31	=31	=31	=31	=31	=31
*	*rep	*	*	*	*	*	*	*	*	*	*	*	*	*	*
2.F] 2.FF/]	(8c/L	.	2.r	.	.	2.r	.	.	2.r	.	.	.	(4ee-\	Be-	.
.	8e-/	.	.	.	.	.	.	.	.	.	.	.	.	.	.
.	.	.	.	.	.	.	.	.	.	.	.	.	8qqff/	.	.
.	8an/	.	.	.	.	.	.	.	.	.	.	.	8ee-\L	.	.
.	8e-/	.	.	.	.	.	.	.	.	.	.	.	8dd\J)	.	.
.	8c/	.	.	.	.	.	.	.	.	.	.	.	8ee-\L	-ne-	.
.	8e-/J)	.	.	.	.	.	.	.	.	.	.	.	8ff\J	.	.
*	*Xrep	*	*	*	*	*	*	*	*	*	*	*	*	*	*
=32	=32	=32	=32	=32	=32	=32	=32	=32	=32	=32	=32	=32	=32	=32	=32
.	.	.	.	.	.	.	.	.	.	.	.	.	8qqee-/	.	.
[2.B- [2.BB-\	(8d/L	.	2.r	.	.	2.r	.	.	2.r	.	.	.	4dd\	-dic-	.
.	8f/	.	.	.	.	.	.	.	.	.	.	.	.	.	.
.	8b-/	.	.	.	.	.	.	.	.	.	.	.	8dd\	-tum	.
.	8f/	.	.	.	.	.	.	.	.	.	.	.	8r	.	.
.	8d/	.	.	.	.	.	.	.	.	.	.	.	4b-\	ex	.
.	8f/J)	.	.	.	.	.	.	.	.	.	.	.	.	.	.
=33	=33	=33	=33	=33	=33	=33	=33	=33	=33	=33	=33	=33	=33	=33	=33
!	!	!	!	!	!	!	!	!	!	!	!	!	!	!	!LO:HP:a
4B-] 4BB-\]	(8d\L	.	2.r	.	.	2.r	.	.	2.r	.	.	.	4b-\	hoc	<
.	8b-\	.	.	.	.	.	.	.	.	.	.	.	.	.	.
4An 4AAn\	8f\	.	.	.	.	.	.	.	.	.	.	.	4cc\	nunc	.
.	8cc\	.	.	.	.	.	.	.	.	.	.	.	.	.	.
4A-X 4AA-X\	8f\	.	.	.	.	.	.	.	.	.	.	.	4dd\	et	.
.	8dd\J)	.	.	.	.	.	.	.	.	.	.	.	.	.	[[
=34	=34	=34	=34	=34	=34	=34	=34	=34	=34	=34	=34	=34	=34	=34	=34
*	*tremolo	*	*	*	*	*	*	*	*	*	*	*	*	*	*
!	!	!	!	!	!	!	!	!	!	!	!	!	!	!	!LO:HP:a
2G 2GG/	(8b-\L	.	2.r	.	.	2.r	.	.	2.r	.	.	.	4ee-\	us-	>
.	8ee-\	.	.	.	.	.	.	.	.	.	.	.	.	.	.
.	8b-\	.	.	.	.	.	.	.	.	.	.	.	4ee-\	-que	.
.	8ee-\J)	.	.	.	.	.	.	.	.	.	.	.	.	.	.
*	*Xtremolo	*	*	*	*	*	*	*	*	*	*	*	*	*	*
4F 4FF/	8b-\L	.	.	.	.	.	.	.	.	.	.	.	4dd\	in	]
.	8dd\J	.	.	.	.	.	.	.	.	.	.	.	.	.	.
=35	=35	=35	=35	=35	=35	=35	=35	=35	=35	=35	=35	=35	=35	=35	=35
2.E- 2.EE-/	(8e-/L	.	2.r	.	.	2.r	.	.	2.r	.	.	.	8cc\L	sae-	.
.	8g/	.	.	.	.	.	.	.	.	.	.	.	8gg\	.	.
.	8cc/	.	.	.	.	.	.	.	.	.	.	.	8ff\	.	.
.	8g/	.	.	.	.	.	.	.	.	.	.	.	8ee-\J	.	.
.	8e-/	.	.	.	.	.	.	.	.	.	.	.	8dd\L	-cu-	.
.	8g/J)	.	.	.	.	.	.	.	.	.	.	.	8cc\J	.	.
!!LO:LB:g=original
=36	=36	=36	=36	=36	=36	=36	=36	=36	=36	=36	=36	=36	=36	=36	=36
.	.	.	.	.	.	.	.	.	.	.	.	.	4qqb-/	.	.
2F 2FF/	(8c/L	.	2.r	.	.	2.r	.	.	2.r	.	.	.	2an\	-li	.
.	8f/	.	.	.	.	.	.	.	.	.	.	.	.	.	.
.	8an/	.	.	.	.	.	.	.	.	.	.	.	.	.	.
.	8f/	.	.	.	.	.	.	.	.	.	.	.	.	.	.
4E- 4EE-/	8c/	.	.	.	.	.	.	.	.	.	.	.	4ff\	ex	.
.	8f/J)	.	.	.	.	.	.	.	.	.	.	.	.	.	.
=37	=37	=37	=37	=37	=37	=37	=37	=37	=37	=37	=37	=37	=37	=37	=37
2.D 2.DD/	(8d/L	.	2.r	.	.	2.r	.	.	2.r	.	.	.	4ff\	hoc	.
.	8f/	.	.	.	.	.	.	.	.	.	.	.	.	.	.
.	8b-/	.	.	.	.	.	.	.	.	.	.	.	4dd\	nunc	.
.	8f/	.	.	.	.	.	.	.	.	.	.	.	.	.	.
.	8d/	.	.	.	.	.	.	.	.	.	.	.	4b-\	et	.
.	8f/J)	.	.	.	.	.	.	.	.	.	.	.	.	.	.
=38	=38	=38	=38	=38	=38	=38	=38	=38	=38	=38	=38	=38	=38	=38	=38
2.E- 2.EE-/	(8e-/L	.	2.r	.	.	2.r	.	.	2.r	.	.	.	8g\L	u-	.
.	8g/	.	.	.	.	.	.	.	.	.	.	.	8an\J	.	.
.	8cc/	.	.	.	.	.	.	.	.	.	.	.	8bn\L	-sque	.
.	8g/	.	.	.	.	.	.	.	.	.	.	.	8cc\J	.	.
.	8e-/	.	.	.	.	.	.	.	.	.	.	.	8dd\L	in	.
.	8g/J)	.	.	.	.	.	.	.	.	.	.	.	8ee-\J	.	.
=39	=39	=39	=39	=39	=39	=39	=39	=39	=39	=39	=39	=39	=39	=39	=39
!	!	!	!	!	!	!	!	!	!LO:TX:a:t=Sopr&colon;I et 2 v. Alto tutti.	!	!	!	!	!	!
[2.F [2.FF/	(8d/L	.	2.r	.	.	2.r	.	.	2.r	.	.	.	4dd\	sae-	.
.	8f/	.	.	.	.	.	.	.	.	.	.	.	.	.	.
.	.	.	.	.	.	.	.	.	.	.	.	.	8qqee-/	.	.
.	8b-/	.	.	.	.	.	.	.	.	.	.	.	8dd\L	.	.
.	8f/	.	.	.	.	.	.	.	.	.	.	.	8cc\J	.	.
.	8d/	.	.	.	.	.	.	.	.	.	.	.	8dd\L	-cu-	.
.	8f/J)	.	.	.	.	.	.	.	.	.	.	.	8ee-\J	.	.
=40	=40	=40	=40	=40	=40	=40	=40	=40	=40	=40	=40	=40	=40	=40	=40
2.F] 2.FF/]	(8c/L	.	2.r	.	.	2.r	.	.	2.r	.	.	.	4cc\	-li	.
.	8f/	.	.	.	.	.	.	.	.	.	.	.	.	.	.
.	8en/	.	.	.	.	.	.	.	.	.	.	.	4r	.	.
.	8e-X/	.	.	.	.	.	.	.	.	.	.	.	.	.	.
.	8d/	.	.	.	.	.	.	.	.	.	.	.	8b-\L	Sit	.
.	8f/J)	.	.	.	.	.	.	.	.	.	.	.	8dd\J	.	.
=41	=41	=41	=41	=41	=41	=41	=41	=41	=41	=41	=41	=41	=41	=41	=41
!	!	!	!	!	!	!	!	!	!	!	!	!	!LO:TX:t=P:problem:diminuendolike accent	!	!
[2.B- [2.BB-\	(8d/L	.	2.r	.	.	2.r	.	.	2.r	.	.	.	2ff^\	no-	.
.	8f/	.	.	.	.	.	.	.	.	.	.	.	.	.	.
.	8b-/	.	.	.	.	.	.	.	.	.	.	.	.	.	.
.	8f/	.	.	.	.	.	.	.	.	.	.	.	.	.	.
.	8d/	.	.	.	.	.	.	.	.	.	.	.	4dd\	-men	.
.	8f/J)	.	.	.	.	.	.	.	.	.	.	.	.	.	.
=42	=42	=42	=42	=42	=42	=42	=42	=42	=42	=42	=42	=42	=42	=42	=42
!	!	!	!	!	!	!	!	!	!	!	!	!	!LO:TX:t=P:problem:diminuendolike accent	!	!
2.B-_ 2.BB-\_	(8d/L	.	4r	.	pp	4r	.	pp	4r	.	.	pp	4.ff^\	Do-	.
.	8f/	.	.	.	.	.	.	.	.	.	.	.	.	.	.
.	8b-/	.	8r	.	.	8r	.	.	8r	.	.	.	.	.	.
*	*	*	*	*ij	*	*	*ij	*	*	*	*	*	*	*	*
.	8f/	.	8BB-/	Sit	.	8b- 8f/	Sit	.	8f 8d/	Sit	.	.	8dd\	-mi-	.
.	8d/	.	8BB-/	no-	.	8b- 8f/	no-	.	8f 8d/	no-	.	.	4b-\	-ni	.
.	8f/J)	.	8BB-/	-men	.	8b- 8f/	-men	.	8f 8d/	-men	.	.	.	.	.
=43	=43	=43	=43	=43	=43	=43	=43	=43	=43	=43	=43	=43	=43	=43	=43
2.B-_ 2.BB-\_	(8e-/L	.	8.BB-/	Do-	.	8.b- 8.g/	Do-	.	8.e- 8.c/	Do-	.	.	[4ee-\	Be-	.
.	8g/	.	.	.	.	.	.	.	.	.	.	.	.	.	.
.	.	.	16BB-/	-mi-	.	16b- 16g/	-mi-	.	16e- 16c/	-mi-	.	.	.	.	.
.	8cc/	.	8BB-/	-ni	.	8b- 8g/	-ni	.	8e- 8c/	-ni	.	.	16ee-\LL]	.	.
.	.	.	.	.	.	.	.	.	.	.	.	.	16ff\	.	.
.	8g/	.	8r	.	.	8r	.	.	8r	.	.	.	16gg\	.	.
.	.	.	.	.	.	.	.	.	.	.	.	.	16ff\JJ	.	.
.	8e-/	.	8BB-/	Be-	.	8b- 8g/	Be-	.	8e- 8c/	Be-	.	.	16ee-\LL	-ne-	.
.	.	.	.	.	.	.	.	.	.	.	.	.	16dd\	.	.
.	8g/J)	.	8BB-/	-ne-	.	8b- 8g/	-ne-	.	8e- 8c/	-ne-	.	.	16cc\	.	.
.	.	.	.	.	.	.	.	.	.	.	.	.	16b-\JJ	.	.
=44	=44	=44	=44	=44	=44	=44	=44	=44	=44	=44	=44	=44	=44	=44	=44
.	.	.	.	.	.	.	.	.	.	.	.	.	8qqb-/	.	.
2B-] 2BB-\]	(8c/L	.	8BB-/	-dic-	.	8an 8f/	-dic-	.	8e- 8c/	-dic-	.	.	4an\	-dic-	.
.	8e-/	.	8r	.	.	8r	.	.	8r	.	.	.	.	.	.
.	8an/	.	8BB-/	-tum	.	8a 8f/	-tum/	.	8e- 8c/	-tum	.	.	8a\	-tym	.
.	8e-/	.	8r	.	.	8r	.	.	8r	.	.	.	8r	.	.
4r	8c/	.	4r	.	.	4r	.	.	4r	.	.	.	8cc\L	Sit	.
.	8e-/J)	.	.	.	.	.	.	.	.	.	.	.	8dd\J	.	.
=45	=45	=45	=45	=45	=45	=45	=45	=45	=45	=45	=45	=45	=45	=45	=45
*	*rep	*	*	*	*	*	*	*	*	*	*	*	*	*	*
!	!	!	!	!	!	!	!	!	!	!	!	!	!LO:TX:t=P:problem:diminuendolike accent	!	!
[2.F [2.FF/	(8c/L	.	2.r	.	.	2.r	.	.	2.r	.	.	.	2ee-^\	no-	.
.	8e-/	.	.	.	.	.	.	.	.	.	.	.	.	.	.
.	8an/	.	.	.	.	.	.	.	.	.	.	.	.	.	.
.	8e-/	.	.	.	.	.	.	.	.	.	.	.	.	.	.
.	8c/	.	.	.	.	.	.	.	.	.	.	.	4cc\	-men	.
.	8e-/J)	.	.	.	.	.	.	.	.	.	.	.	.	.	.
*	*Xrep	*	*	*	*	*	*	*	*	*	*	*	*	*	*
=46	=46	=46	=46	=46	=46	=46	=46	=46	=46	=46	=46	=46	=46	=46	=46
*	*rep	*	*	*	*	*	*	*	*	*	*	*	*	*	*
!	!	!	!	!	!	!	!	!	!	!	!	!	!LO:TX:t=P:problem:diminuendolike accent	!	!
2.F_ 2.FF/_	(8c/L	.	4r	.	.	4r	.	.	4r	.	.	.	4.ee-^\	Do-	.
.	8e-/	.	.	.	.	.	.	.	.	.	.	.	.	.	.
.	8an/	.	8r	.	.	8r	.	.	8r	.	.	.	.	.	.
.	8e-/	.	8F\	Sit	.	8cc 8an\	Sit	.	8f 8e-/	Sit	.	.	8cc\	-mi-	.
.	8c/	.	8F\	no-	.	8cc 8a\	no-	.	8f 8e-/	no-	.	.	4an/	-ni	.
.	8e-/J)	.	8F\	-men	.	8cc 8a\	-men	.	8f 8e-/	-men	.	.	.	.	.
*	*Xrep	*	*	*	*	*	*	*	*	*	*	*	*	*	*
=47	=47	=47	=47	=47	=47	=47	=47	=47	=47	=47	=47	=47	=47	=47	=47
*	*rep	*	*	*	*	*	*	*	*	*	*	*	*	*	*
2.F] 2.FF/]	(8c/L	.	8.F\	Do-	.	8.cc 8.an\	Do-	.	8.f 8.e-/	Do-	.	.	(4ee-\	Be-	.
.	8e-/	.	.	.	.	.	.	.	.	.	.	.	.	.	.
.	.	.	16F\	-mi-	.	16cc 16a\	-mi-	.	16f 16e-/	-mi-	.	.	.	.	.
.	.	.	.	.	.	.	.	.	.	.	.	.	8qqff/	.	.
.	8an/	.	8F\	-ni	.	8cc 8a\	-ni	.	8f 8e-/	-ni	.	.	8ee-\L	.	.
.	8e-/	.	8r	.	.	8r	.	.	8r	.	.	.	8dd\J)	.	.
.	8c/	.	8F\	Be-	.	8cc 8a\	Be-	.	8f 8e-/	Be-	.	.	8ee-\L	-ne-	.
.	8e-/J)	.	8F\	-ne-	.	8cc 8a\	-ne-	.	8f 8e-/	-ne-	.	.	8ff\J	.	.
*	*Xrep	*	*	*	*	*	*	*	*	*	*	*	*	*	*
=48	=48	=48	=48	=48	=48	=48	=48	=48	=48	=48	=48	=48	=48	=48	=48
.	.	.	.	.	.	.	.	.	.	.	.	.	8qqee-/	.	.
[2.B- [2.BB-\	(8d/L	.	8BB-/	-dic-	.	8dd 8b-\	-dic-	.	8f 8d/	-dic-	.	.	4dd\	-dic-	.
.	8f/	.	8r	.	.	8r	.	.	8r	.	.	.	.	.	.
.	8b-/	.	8BB-/	-tum	.	8dd 8b-\	-tum	.	8f 8d/	-tum	.	.	8dd\	-tum	.
.	8f/	.	8r	.	.	8r	.	.	8r	.	.	.	8r	.	.
.	8d/	.	8BB-/	ex	.	8b- 8f/	ex	.	8f 8d/	ex	.	.	4b-\	ex	.
.	8f/J)	.	8r	.	.	8r	.	.	8r	.	.	.	.	.	.
=49	=49	=49	=49	=49	=49	=49	=49	=49	=49	=49	=49	=49	=49	=49	=49
!	!	!	!	!	!	!	!	!	!	!	!	!	!	!	!LO:HP:a
4B-] 4BB-\]	(8d\L	.	8BB-/	hoc	.	8b- 8f/	hoc	.	8f 8d/	hoc	.	.	4b-\	hoc	<
*	*	*	*	*Xij	*	*	*	*	*	*	*	*	*	*	*
.	8b-\	.	8r	.	.	8r	.	.	8r	.	.	.	.	.	.
4An 4AAn\	8f\	.	4r	.	.	4r	.	.	4r	.	.	.	4cc\	nunc	.
.	8cc\	.	.	.	.	.	.	.	.	.	.	.	.	.	.
!	!	!	!LO:TX:a:t=P:problem:skreślone nuty	!	!	!LO:TX:a:t=P:problem:skreślone nuty	!	!	!LO:TX:a:t=P:problem:skreślone nuty	!	!	!	!	!	!
4A-X 4AA-X\	8f\	.	4r	.	.	4r	.	.	4r	.	[[ex	.	4dd\	et	.
.	8dd\J)	.	.	.	.	.	.	.	.	.	.	.	.	.	[[
=50	=50	=50	=50	=50	=50	=50	=50	=50	=50	=50	=50	=50	=50	=50	=50
*	*	*	*	*	*	*^	*	*	*^	*	*	*	*	*	*
*	*tremolo	*	*	*	*	*	*	*	*	*	*	*	*	*	*	*	*
!	!	!	!	!	!	!	!	!	!	!	!	!	!	!	!	!	!LO:HP:a
2G 2GG/	(8b-\L	.	8G\	nunc	.	8b-/	8b-\	nunc	.	8e-/	8e-\	nunc	hoc	.	4ee-\	us-	>
.	8ee-\	.	8r	.	.	8r	4.ryy	.	.	8r	2ryy	.	.	.	.	.	.
!	!	!	!	!	!	!LO:TX:a:t=P:problem:skreślone nuty	!	!	!	!LO:TX:a:t=P:problem:skreślone nuty	!	!	!	!	!	!	!
.	8b-\	.	4r	.	.	4r	.	.	.	4r	.	nunc]]	.	.	4ee-\	-que	.
.	8ee-\J)	.	.	.	.	.	.	.	.	.	.	.	.	.	.	.	]
*	*Xtremolo	*	*	*	*	*	*	*	*	*	*	*	*	*	*	*	*
4F 4FF/	8b-\L	.	8F\	et	.	8b-/	8b-\	et	.	8f 8d/	.	et	.	.	4dd\	in	.
.	8dd\J	.	8r	.	.	8r	8ryy	.	.	8r	8ryy	.	.	.	.	.	.
*	*	*	*	*	*	*v	*v	*	*	*	*	*	*	*	*	*	*
*	*	*	*	*	*	*	*	*	*v	*v	*	*	*	*	*	*
=51	=51	=51	=51	=51	=51	=51	=51	=51	=51	=51	=51	=51	=51	=51	=51
2.E- 2.EE-/	(8e-/L	.	8E-\	us-	.	8g 8e-/	us-	.	8g 8e-/	us-	.	.	8cc\L	sae-	.
.	8g/	.	8r	.	.	8r	.	.	8r	.	.	.	8gg\	.	.
.	8cc/	.	8E-\	-que	.	8cc 8g\	-que	.	8g 8e-/	-que	.	.	8ff\	.	.
.	8g/	.	8r	.	.	8r	.	.	8r	.	.	.	8ee-\J	.	.
.	8e-/	.	8E-\	in	.	8cc 8g\	in	.	8g 8e-/	in	.	.	8dd\L	-cu-	.
.	8g/J)	.	8r	.	.	8r	.	.	8r	.	.	.	8cc\J	.	.
=52	=52	=52	=52	=52	=52	=52	=52	=52	=52	=52	=52	=52	=52	=52	=52
.	.	.	.	.	.	.	.	.	.	.	.	.	4qqb-/	.	.
*	*	*	*	*	*	*	*	*	*^	*	*	*	*	*	*
2F 2FF/	(8c/L	.	8.F\	sae-	.	8.cc 8.an\	sae-	.	8.f/	8.f\	sae-	.	.	2an\	-li	.
.	8f/	.	.	.	.	.	.	.	.	.	.	.	.	.	.	.
.	.	.	16F\	-cu-	.	16cc 16a\	-cu-	.	16f/	16f\	-cu-	.	.	.	.	.
.	8an/	.	8F\	-li	.	8cc 8a\	-li	.	8f/	8f\	-li	.	.	.	.	.
*	*	*	*	*	*	*	*Xij	*	*	*	*	*	*	*	*	*
.	8f/	.	8r	.	.	8r	.	.	8r	4.ryy	.	.	.	.	.	.
4E- 4EE-/	8c/	.	8F\	ex	.	8a 8f/	ex	.	8f 8c/	.	ex	.	.	4ff\	ex	.
.	8f/J)	.	8r	.	.	8r	.	.	8r	.	.	.	.	.	.	.
*	*	*	*	*	*	*	*	*	*v	*v	*	*	*	*	*	*
!!LO:PB:g=original
=53	=53	=53	=53	=53	=53	=53	=53	=53	=53	=53	=53	=53	=53	=53	=53
*	*	*	*	*ij	*	*	*ij	*	*	*	*	*	*	*	*
!	!	!	!	!	!	!	!	!	!	!	!	!	!	!	!LO:HP:a
2.D 2.DD/	(8d/L	.	8D\	hoc	.	8b- 8d/	hoc	.	8dd 8d/	hoc	.	.	4ff\	hoc	<
.	8f/	.	8r	.	.	8r	.	.	8r	.	.	.	.	.	.
.	8b-/	.	8D\	nunc	.	8b- 8d/	nunc	.	8b- 8d/	nunc	.	.	4ff\	nunc	.
.	8f/	.	8r	.	.	8r	.	.	8r	.	.	.	.	.	.
.	8d/	.	8D\	et	.	8b- 8d/	et	.	8b- 8d/	et	.	.	4ff#X\	et	[
.	8f#X/J)	.	8r	.	.	8r	.	.	8r	.	.	.	.	.	.
=54	=54	=54	=54	=54	=54	=54	=54	=54	=54	=54	=54	=54	=54	=54	=54
!	!	!	!	!	!	!	!	!	!	!	!	!	!	!	!LO:HP:a
2.E- 2.EE-/	(8e-/L	.	8E-\	u-	.	8g 8e-/	u-	.	8b- 8g/	u-	.	.	8aan\L	u-	>
.	8g/	.	8r	.	.	8r	.	.	8r	.	.	.	8gg\J	.	.
.	8b-/	.	8E-\	-sque	.	8b- 8g\	-sque	.	8g 8e-/	-sque	.	.	8dd\L	-sque	]
.	8g/	.	8r	.	.	8r	.	.	8r	.	.	.	8ee-\J	.	.
.	8e-/	.	8E-\	in	.	8cc 8g\	in	.	8g 8e-/	in	.	.	8g\L	in	.
.	8cc/J)	.	8r	.	.	8r	.	.	8r	.	.	.	8cc\J	.	.
=55	=55	=55	=55	=55	=55	=55	=55	=55	=55	=55	=55	=55	=55	=55	=55
2.F 2.FF/	(8d/L	.	8F\	sae-	.	8dd 8b-\	sae-	.	8f 8d/	sae-	.	.	2b-\	sae-	.
.	8f/	.	8r	.	.	8r	.	.	8r	.	.	.	.	.	.
.	8b-/	.	4r	.	.	4r	.	.	4r	.	.	.	.	.	.
.	8f/	.	.	.	.	.	.	.	.	.	.	.	.	.	.
.	.	.	.	.	.	.	.	.	.	.	.	.	(16qqcc/LL	.	.
.	.	.	.	.	.	.	.	.	.	.	.	.	16qqb-/	.	.
.	.	.	.	.	.	.	.	.	.	.	.	.	16qqan/	.	.
.	.	.	.	.	.	.	.	.	.	.	.	.	16qqb-/JJ	.	.
.	8c/	.	8F\	cu-	.	8ee- 8cc\	cu-	.	8a- 8f/	cu-	.	.	8dd\L)	cu-	.
.	8an/J)	.	8r	.	.	8r	.	.	8r	.	.	.	8cc\J	.	.
=56	=56	=56	=56	=56	=56	=56	=56	=56	=56	=56	=56	=56	=56	=56	=56
2B- 2BB-;\	2b- 2f 2d;/	.	2BB-;/	-li	.	2dd 2b-;\	-li	.	2b- 2f;\	-li	.	.	2b-;\	-li	.
*	*	*	*	*	*	*	*Xij	*	*	*ij	*	*	*	*	*
!	!	!LO:DY:rj	!	!	!	!	!	!	!	!	!	!LO:DY:rj	!LO:TX:a:t=tutti	!	!LO:DY:rj
4r	4g 4e-/	p	4r	.	.	4r	.	.	4e-/	A	.	p	4g/	A	p
=57	=57	=57	=57	=57	=57	=57	=57	=57	=57	=57	=57	=57	=57	=57	=57
2.r	2g 2e-/	.	2.r	.	.	2.r	.	.	2e-/	so-	.	.	2g/	so-	.
.	4g 4e-/	.	.	.	.	.	.	.	4e-/	-lis	.	.	4g/	-lis	.
=58	=58	=58	=58	=58	=58	=58	=58	=58	=58	=58	=58	=58	=58	=58	=58
2.r	4.b- 4.g/	.	2.r	.	.	2.r	.	.	4.g/	or-	.	.	4.b-/	or-	.
.	8a- 8f/	.	.	.	.	.	.	.	8f/	.	.	.	8a-/	.	.
.	4g 4e-/	.	.	.	.	.	.	.	4e-/	.	.	.	4g/	.	.
=59	=59	=59	=59	=59	=59	=59	=59	=59	=59	=59	=59	=59	=59	=59	=59
2.r	4f 4B-/	.	2.r	.	.	2.r	.	.	4B-/	.	.	.	4f/	.	.
.	4g 4e-/	.	.	.	.	.	.	.	4e-/	.	.	.	4g/	.	.
.	4a- 4f/	.	.	.	.	.	.	.	4f/	.	.	.	4a-/	.	.
=60	=60	=60	=60	=60	=60	=60	=60	=60	=60	=60	=60	=60	=60	=60	=60
4r	2g 2e-/	.	4r	.	.	4r	.	.	2e-/	-tu	.	.	2g/	-tu	.
4r	.	f	4r	.	f	4r	.	f	.	.	.	f	.	.	f
4E- 4EE-/	4ee- 4g\	.	4E-\	A	.	4ee- 4g\	A	.	4g/	A	.	.	4ee-\	A	.
=61	=61	=61	=61	=61	=61	=61	=61	=61	=61	=61	=61	=61	=61	=61	=61
[2.E- [2.EE-/	2.ee- 2.g\	.	2E-\	so-	.	2ee- 2g\	so-	.	2g/	so-	.	.	2ee-\	so-	.
.	.	.	4E-\	-lis	.	4ee- 4g\	-lis	.	4g/	-lis	.	.	4ee-\	-lis	.
=62	=62	=62	=62	=62	=62	=62	=62	=62	=62	=62	=62	=62	=62	=62	=62
2.E-] 2.EE-/]	4.gg 4.b-\	.	2.E-\	or-	.	4.gg 4.b-\	or-	.	4.b-/	or-	.	.	4.gg\	or-	.
.	8ff 8a-\	.	.	.	.	8ff 8a-\	.	.	8a-/	.	.	.	8ff\	.	.
.	4ee- 4g\	.	.	.	.	4ee- 4g\	.	.	4g/	.	.	.	4ee-\	.	.
=63	=63	=63	=63	=63	=63	=63	=63	=63	=63	=63	=63	=63	=63	=63	=63
2.B- 2.BB-\	4dd 4f\	.	2.BB-/	.	.	4dd 4f\	.	.	4f/	.	.	.	4dd\	.	.
.	4ee- 4g\	.	.	.	.	4ee- 4g\	.	.	4g/	.	.	.	4ee-\	.	.
.	4ff 4a-\	.	.	.	.	4ff 4a-\	.	.	4a-/	.	.	.	4ff\	.	.
=64	=64	=64	=64	=64	=64	=64	=64	=64	=64	=64	=64	=64	=64	=64	=64
2E- 2EE-/	2ee- 2g\	.	2E-\	tu	.	2ee- 2g\	-tu	.	2g/	-tu	.	.	2ee-\	-tu	.
*	*	*	*	*Xij	*	*	*	*	*	*	*	*	*	*	*
(4B-\	4r	.	4B-\	A	.	4r	.	.	4r	.	.	.	4r	.	.
=65	=65	=65	=65	=65	=65	=65	=65	=65	=65	=65	=65	=65	=65	=65	=65
4e-\	2.r	.	(4e-\	so-	.	2.r	.	.	2.r	.	.	.	2.r	.	.
4d\	.	.	4d\	.	.	.	.	.	.	.	.	.	.	.	.
4c\	.	.	4c\	.	.	.	.	.	.	.	.	.	.	.	.
=66	=66	=66	=66	=66	=66	=66	=66	=66	=66	=66	=66	=66	=66	=66	=66
4B-\	2.r	.	4B-\	.	.	2.r	.	.	2.r	.	.	.	2.r	.	.
!	!	!	!	!	!LO:HP:a:t=dim&colon;	!	!	!	!	!	!	!	!	!	!
4A-\	.	.	4A-\	.	>	.	.	.	.	.	.	.	.	.	.
4G\	.	.	4G\	.	.	.	.	.	.	.	.	.	.	.	.
=67	=67	=67	=67	=67	=67	=67	=67	=67	=67	=67	=67	=67	=67	=67	=67
4F\	2.r	.	4F\	.	.	2.r	.	.	2.r	.	.	.	2.r	.	.
4E-\	.	.	4E-\	.	.	.	.	.	.	.	.	.	.	.	.
4D\	.	.	4D\	.	.	.	.	.	.	.	.	.	.	.	.
=68	=68	=68	=68	=68	=68	=68	=68	=68	=68	=68	=68	=68	=68	=68	=68
4C\	4r	.	4C\	.	.	4r	.	.	4r	.	.	.	4r	.	p
4BB-\	4r	.	4BB-\)	.	.	4r	.	p	4r	.	.	p	4r	.	.
!	!	!LO:DY:rj	!	!	!LO:DY:rj	!	!	!	!	!	!	!	!	!	!
4AAn\)	4f 4d/	p	4AAn/	-lis	p	4f 4d/	A	.	4d/	A	.	.	4f/	A	.
=69	=69	=69	=69	=69	=69	=69	=69	=69	=69	=69	=69	=69	=69	=69	=69
[2.AA-X/	[2.f [2.d/	.	[2.AA-X/	or-	.	2f 2d/	so-	.	2d/	so-	.	.	2f/	so-	.
.	.	.	.	.	.	4f 4d/	-lis	.	4d/	-lis	.	.	4f/	-lis	.
=70	=70	=70	=70	=70	=70	=70	=70	=70	=70	=70	=70	=70	=70	=70	=70
2.AA-/]	4f] 4d/]	.	2.AA-/]	.	.	4f 4d/	or-	.	4d/	or-	.	.	4f/	or-	.
.	4g 4e-/	.	.	.	.	4g 4e-/	.	.	4e-/	.	.	.	4g/	.	.
.	4a- 4f/	.	.	.	.	4a- 4f/	.	.	4f/	.	.	.	4a-/	.	.
=71	=71	=71	=71	=71	=71	=71	=71	=71	=71	=71	=71	=71	=71	=71	=71
*	*^	*	*	*	*	*^	*	*	*	*	*	*	*	*	*
2.GG/	2b-/	[2.e-\	.	2.GG/	.	.	2b-/	2.e-\	.	.	2.e-/	.	.	.	2b-/	.	.
.	4bn/	.	.	.	.	.	4bn/	.	.	.	.	.	.	.	4bn/	.	.
*	*v	*v	*	*	*	*	*v	*v	*	*	*	*	*	*	*	*	*
=72	=72	=72	=72	=72	=72	=72	=72	=72	=72	=72	=72	=72	=72	=72	=72
2.AA-/	2cc 2e-\]	.	2AA-/	-tu	.	2cc 2e-\	-tu	.	2e-/	-tu	.	.	2cc\	-tu	.
.	4cc 4a-\	.	4AA-/	u-	.	4cc 4a-\	u-	.	4a-/	u-	.	.	4cc\	u-	.
!!LO:LB:g=original
=73	=73	=73	=73	=73	=73	=73	=73	=73	=73	=73	=73	=73	=73	=73	=73
*	*^	*	*	*	*	*^	*	*	*	*	*	*	*	*	*
[2.B- [2.BB-\	4b-/	2g\	.	2BB-/	.	.	(<4b-/	2g\	.	.	2g/	.	.	.	(4b-\	.	.
.	4ee-/	.	.	.	.	.	4ee-/)	.	.	.	.	.	.	.	4ee-\)	.	.
*	*	*	*	*	*ij	*	*	*	*	*	*	*	*	*	*	*	*
.	4g/	4e-\	.	4BB-/	-sque	.	4g/	4e-\	-sque	.	4e-/	-sque	.	.	4g/	-sque	.
*	*v	*v	*	*	*	*	*v	*v	*	*	*	*	*	*	*	*	*
=74	=74	=74	=74	=74	=74	=74	=74	=74	=74	=74	=74	=74	=74	=74	=74
2.B-_ 2.BB-\_	4cc 4a-\	.	2BB-/	u-	.	(4cc 4a-\	u-	.	(4a-/	us-	.	.	(4cc\	us-	.
.	4b- 4g\	.	.	.	.	4b- 4g\)	.	.	4g/)	.	.	.	4b-\)	.	.
.	4b- 4g\	.	4BB-/	-sque	.	4b- 4g\	-sque	.	4g/	-que	.	.	4b-\	-que	.
=75	=75	=75	=75	=75	=75	=75	=75	=75	=75	=75	=75	=75	=75	=75	=75
*	*^	*	*	*	*	*^	*	*	*	*	*	*	*	*	*
2.B-_ 2.BB-\_	4b-/	2g\	.	2BB-/	u-	.	(<4b-/	2g\	u-	.	2g/	us-	.	.	(4b-\	us-	.
.	4ee-/	.	.	.	.	.	4ee-/)	.	.	.	.	.	.	.	4ee-\)	.	.
.	4g/	4e-\	.	4BB-/	-sque	.	4g/	4e-\	-sque	.	4e-/	-que	.	.	4g/	-que	.
*	*v	*v	*	*	*	*	*v	*v	*	*	*	*	*	*	*	*	*
=76	=76	=76	=76	=76	=76	=76	=76	=76	=76	=76	=76	=76	=76	=76	=76
2.B-_ 2.BB-\_	2cc 2a-\	.	2BB-/	ad	.	2cc 2a-\	ad	.	2a-/	ad	.	.	2cc\	ad	.
.	4b- 4g\	.	4BB-/	oc-	.	4b- 4g\	oc-	.	4g/	oc-	.	.	4b-\	oc-	.
=77	=77	=77	=77	=77	=77	=77	=77	=77	=77	=77	=77	=77	=77	=77	=77
2.B-_ 2.BB-\_	[2.a- [2.e-/	.	[2.BB-/	-ca-	.	[2.b- [2.f/	-ca-	.	[2.e-/	-ca-	.	.	[2.a-/	-ca-	.
=78	=78	=78	=78	=78	=78	=78	=78	=78	=78	=78	=78	=78	=78	=78	=78
*	*^	*	*	*	*	*	*	*	*	*	*	*	*	*	*
2.B-_ 2.BB-\_	2.a-/_	4e-\]	.	2.BB-/_	.	.	2.b-_ 2.f/_	.	.	4e-/]	.	.	.	2.a-/_	.	.
.	.	4d\	.	.	.	.	.	.	.	4d/	.	.	.	.	.	.
!	!	!	!	!	!	!	!	!	!	!	!	!	!	!LO:TX:a:t=P:problem:skreślona nuta	!	!
.	.	4c\	.	.	.	.	.	.	.	4c/	.	.	.	.	.	.
=79	=79	=79	=79	=79	=79	=79	=79	=79	=79	=79	=79	=79	=79	=79	=79	=79
2.B-] 2.BB-\]	2a-/]	2.d\	.	2.BB-/]	.	.	2.b-] 2.f/]	.	.	2.d/	.	.	.	2a-/]	.	.
.	4b-/	.	.	.	.	.	.	.	.	.	.	.	.	4b-/	.	.
*	*v	*v	*	*	*	*	*	*	*	*	*	*	*	*	*	*
=80	=80	=80	=80	=80	=80	=80	=80	=80	=80	=80	=80	=80	=80	=80	=80
!	!	!LO:DY:b=2:rj	!	!	!	!	!	!	!	!	!	!	!	!	!
[2.E- [2.EE-/	2g 2e-/	f	2E-\	-sum/	.	2b- 2g/	-sum	.	2e-/	-sum	.	.	2g/	-sum	.
!	!	!LO:DY:rj	!	!	!LO:DY:rj	!	!	!LO:DY:rj	!	!	!	!LO:DY:rj	!	!	!LO:DY:rj
.	4ee- 4g\	f	4E-\	/Lau-	f	4ee- 4g\	Lau-	f	4g/	Lau-	.	f	4ee-\	Lau-	f
=81	=81	=81	=81	=81	=81	=81	=81	=81	=81	=81	=81	=81	=81	=81	=81
2.E-_ 2.EE-/_	2.ee- 2.g\	.	4.E-\	-da-	.	4.ee- 4.g\	-da-	.	4.g/	-da-	.	.	4.ee-\	-da-	.
.	.	.	8E-\	-bi-	.	8ee- 8g\	-bi-	.	8g/	-bi-	.	.	8ee-\	-bi-	.
.	.	.	4E-\	-le	.	4ee- 4g\	-le	.	4g/	-le	.	.	4ee-\	-le	.
=82	=82	=82	=82	=82	=82	=82	=82	=82	=82	=82	=82	=82	=82	=82	=82
2.E-] 2.EE-/]	4.gg 4.b-\	.	2E-\	no-	.	(4.gg 4.b-\	no-	.	(4.b-/	no-	.	.	(4.gg\	no-	.
.	8ff 8a-\	.	.	.	.	8ff 8a-\)	.	.	8a-/)	.	.	.	8ff\)	.	.
.	4ee- 4g\	.	4E-\	-men	.	4ee- 4g\	-men	.	4g/	-men	.	.	4ee-\	-men	.
=83	=83	=83	=83	=83	=83	=83	=83	=83	=83	=83	=83	=83	=83	=83	=83
2.B- 2.BB-\	4dd 4f\	.	2BB-/	Do-	.	(4dd 4f\	Do-	.	(4f/	Do-	.	.	(4dd\	Do-	.
.	4ee- 4g\	.	.	.	.	4ee- 4g\)	.	.	4g/)	.	.	.	4ee-\)	.	.
.	4ff 4a-\	.	4BB-/	-mi-	.	4ff 4a-\	-mi-	.	4a-/	-mi-	.	.	4ff\	-mi-	.
=84	=84	=84	=84	=84	=84	=84	=84	=84	=84	=84	=84	=84	=84	=84	=84
2E- 2EE-/	2ee- 2g\	.	2E-\	-ni	.	2ee- 2g\	-ni	.	2g/	-ni	.	.	2ee-\	-ni	.
!	!	!LO:DY:rj	!	!	!	!	!	!	!	!	!	!LO:DY:rj	!	!	!LO:DY:rj
4r	4g 4e-/	p	4r	.	.	4r	.	.	4e-/	Lau-	.	p	4g/	Lau-	p
=85	=85	=85	=85	=85	=85	=85	=85	=85	=85	=85	=85	=85	=85	=85	=85
2.r	2.g 2.e-/	.	2.r	.	.	2.r	.	.	4.e-/	-da-	.	.	4.g/	-da-	.
.	.	.	.	.	.	.	.	.	8e-/	-bi-	.	.	8g/	-bi-	.
.	.	.	.	.	.	.	.	.	4e-/	-le	.	.	4g/	-le	.
=86	=86	=86	=86	=86	=86	=86	=86	=86	=86	=86	=86	=86	=86	=86	=86
2.r	4.b- 4.g/	.	2.r	.	.	2.r	.	.	(4.g/	no-	.	.	(4.b-/	no-	.
.	8a- 8f/	.	.	.	.	.	.	.	8f/)	.	.	.	8a-/)	.	.
.	4g 4e-/	.	.	.	.	.	.	.	4e-/	-men	.	.	4g/	-men	.
=87	=87	=87	=87	=87	=87	=87	=87	=87	=87	=87	=87	=87	=87	=87	=87
2.r	4f 4B-/	.	2.r	.	.	2.r	.	.	(4B-/	Do-	.	.	(4f/	Do-	.
.	4g 4e-/	.	.	.	.	.	.	.	4e-/)	.	.	.	4g/)	.	.
.	4f 4B-/	.	.	.	.	.	.	.	4B-/	-mi-	.	.	4f/	-mi-	.
=88	=88	=88	=88	=88	=88	=88	=88	=88	=88	=88	=88	=88	=88	=88	=88
4r	2e- 2G/	.	4r	.	.	4r	.	.	2G/	-ni	.	.	2e-/	-ni	.
4r	.	.	4r	.	p	4r	.	p	.	.	.	.	.	.	.
4E-\	4e- 4B- 4G/	.	4E-\	Lau-	.	4g 4e-/	Lau-	.	4B-/	Lau-	.	.	4e-/	Lau-	.
=89	=89	=89	=89	=89	=89	=89	=89	=89	=89	=89	=89	=89	=89	=89	=89
2.E-\	[2.e- [2.B- [2.G/	.	4.E-\	-da-	.	4.g 4.e-/	-da-	.	4.B-/	-da-	.	.	4.e-/	-da-	.
.	.	.	8E-\	-bi-	.	8g 8e-/	-bi-	.	8B-/	-bi-	.	.	8e-/	-bi-	.
.	.	.	4E-\	-le	.	4g 4e-/	-le	.	4B-/	-le	.	.	4e-/	-le	.
=90	=90	=90	=90	=90	=90	=90	=90	=90	=90	=90	=90	=90	=90	=90	=90
2.BB-/	2.e-_ 2.B-_ 2.G/_	.	2BB-/	no-	.	2g 2e-/	no-	.	2B-/	no-	.	.	2e-/	no-	.
.	.	.	4BB-/	-men	.	4g 4e-/	-men	.	4B-/	-men	.	.	4e-/	-men	.
=91	=91	=91	=91	=91	=91	=91	=91	=91	=91	=91	=91	=91	=91	=91	=91
4GG/	2.e-_ 2.B-_ 2.G/_	.	(4GG/	Do-	.	2g 2e-/	Do-	.	2B-/	Do-	.	.	2e-/	Do-	.
4BB-/	.	.	4BB-/)	.	.	.	.	.	.	.	.	.	.	.	.
4GG/	.	.	4GG/	-mi-	.	4g 4e-/	-mi-	.	4B-/	-mi-	.	.	4e-/	-mi-	.
=92	=92	=92	=92	=92	=92	=92	=92	=92	=92	=92	=92	=92	=92	=92	=92
!LO:TX:b:t=VS.	!	!	!	!	!	!	!	!	!	!	!	!	!	!	!
2.EE-;/	2.e-] 2.B-] 2.G;/]	.	2.EE-/	-ni	.	2.g 2.e-/	-ni	.	2.B-;/	-ni	.	.	2.e-;/	-ni	.
*	*	*	*	*Xij	*	*	*	*	*	*Xij	*	*	*	*	*
==	==	==	==	==	==	==	==	==	==	==	==	==	==	==	==
*-	*-	*-	*-	*-	*-	*-	*-	*-	*-	*-	*-	*-	*-	*-	*-
!!!system-decoration: (s1,s2,s3,s4,s5,s6)
!!!RDF**kern: < = below
!!!AIN: 1 empty 1 organ 2 soprn 1 tenor
!!!ENC: Marta Lawrence
!!!END: 2021-06-06
!!!ENC: Tomasz Grochalski
!!!END: 2021-05-25
